X:75
T:Minuet,A. JaW.075
M:3/4
L:1/8
Q:3/4=40
S:James Winder Ms, Lancashire, 1835-41
R:.Minuet
O:England
A:Wyresdale,Lancashire
N:As written, with new time sig for return to 3/4. If you ignore the
N:barlines for the odd bit it works OK. CGP..
Z:vmp.Chris Partington, Aug 2004
K:Bb
Bfdfcf|d2cdB2|e2g2b2|d4c2|!
Bfdfcf|d2cdB2|bagfed|c6:|!
|:AcFcAc|B2c2d2|\
M:C
“sic”D2D2G,2D2|B,4(A,2G,2)|!
M:3/4
BdFdBd|c2d2e2|fedfef|gfegfg|abc4|B6:|

